lib/logo_tmp/nrk-logo-nrk-folkemusikk.svg

<svg width="158" height="16" viewBox="0 0 158 16" fill="none" xmlns="http://www.w3.org/2000/svg">
<path d="M6.10352e-05 15V1.00123H4.59345V15H6.10352e-05ZM10.8428 3.2292L13.4845 15H8.45743L5.30313 1.00123H8.1226C8.76913 0.99284 9.39647 1.22075 9.88698 1.64208C10.3783 2.04574 10.7158 2.60611 10.8428 3.2292ZM14.1745 15V1.00123H18.7679V15H14.1745ZM22.2373 6.32474C21.7423 6.32957 21.2553 6.20006 20.828 5.95008C20.4065 5.70643 20.0563 5.35624 19.8127 4.93466C19.5625 4.50735 19.4329 4.02018 19.4379 3.525C19.4322 3.03283 19.5618 2.54857 19.8127 2.12512C20.0589 1.70811 20.4087 1.36174 20.828 1.11957C21.2554 0.869879 21.7423 0.740393 22.2373 0.744907C22.7293 0.739608 23.2134 0.86921 23.637 1.11957C24.0521 1.36386 24.3982 1.70995 24.6424 2.12512C24.893 2.54869 25.0226 3.03287 25.0173 3.525C25.0219 4.02014 24.8924 4.50722 24.6424 4.93466C24.4007 5.3544 24.0543 5.70429 23.637 5.95008C23.2133 6.20093 22.7289 6.33057 22.2366 6.32474H22.2373ZM25.727 15V1.00123H30.3208V15H25.727ZM36.1361 8.65123C36.149 8.66481 36.2475 8.82582 36.4318 9.13428C36.616 9.44273 36.8558 9.83709 37.1513 10.3173C37.447 10.7973 37.7591 11.3066 38.0874 11.8453C38.4158 12.384 38.7248 12.8934 39.0144 13.3734C39.3028 13.8534 39.6314 14.3955 40.0001 15H34.9532C34.6376 14.4873 34.3516 14.024 34.0953 13.61C33.839 13.1959 33.5666 12.749 33.2779 12.2692C32.9885 11.7899 32.7024 11.3233 32.4196 10.8693C32.1368 10.4154 31.8938 10.0178 31.6905 9.67653C31.4864 9.33499 31.345 9.10494 31.2663 8.98642C31.0714 8.69231 30.956 8.35264 30.9315 8.00059C30.9511 7.66272 31.0598 7.3361 31.2466 7.05392C31.3255 6.92248 31.4701 6.68912 31.6803 6.35394C31.8906 6.01876 32.1371 5.62119 32.4196 5.16114C32.7022 4.70109 32.9883 4.23116 33.2779 3.7514C33.5675 3.27163 33.8399 2.8214 34.0953 2.40078C34.352 1.9806 34.638 1.51398 34.9532 1.00091H40.0001L36.0963 7.36937C35.9755 7.55845 35.9074 7.77636 35.8991 8.00059C35.9121 8.236 35.9943 8.46233 36.1354 8.65123H36.1361Z" fill="white"/>
<path d="M45.3334 15.0018H47.4037V9.22469H52.6878L52.9047 7.50966H47.4037V2.73786H54.5609V1.00277H45.3334V15.0018Z" fill="white"/>
<path d="M62.773 5.36095C61.9515 4.92441 61.0313 4.70704 60.1013 4.72995C59.1627 4.70857 58.2349 4.93286 57.4097 5.3806C56.6481 5.807 56.0254 6.44358 55.6158 7.21429C55.1706 8.07899 54.95 9.04182 54.9746 10.0141C54.9496 10.9787 55.1558 11.9354 55.576 12.804C55.9536 13.5622 56.5561 14.1854 57.3012 14.5884C58.1032 15.0085 58.9986 15.2189 59.9038 15.1996C60.8515 15.2184 61.7883 14.9945 62.6251 14.5493C63.406 14.1228 64.0465 13.4789 64.4686 12.6956C64.9266 11.8206 65.154 10.8433 65.1291 9.85604C65.1517 8.91577 64.9416 7.98449 64.5176 7.14498C64.1247 6.39127 63.5177 5.77058 62.773 5.36095ZM62.6543 11.966C62.4332 12.4786 62.0577 12.9094 61.5801 13.1983C61.1005 13.4732 60.5554 13.613 60.0027 13.6028C59.4607 13.6164 58.9265 13.4726 58.4645 13.1888C58.0077 12.8851 57.6509 12.4531 57.4392 11.947C57.1711 11.2976 57.0436 10.5987 57.0649 9.89648C57.0417 9.21312 57.1695 8.53305 57.4392 7.90474C57.6604 7.41093 58.029 6.99765 58.4944 6.72169C58.9918 6.44795 59.5532 6.31184 60.1207 6.32737C60.564 6.31627 61.0045 6.40031 61.4125 6.57383C61.7698 6.735 62.0815 6.98238 62.3195 7.2938C62.5736 7.63184 62.7578 8.01714 62.8613 8.42718C62.9847 8.90702 63.0444 9.40107 63.0388 9.89648C63.0619 10.606 62.9308 11.3121 62.6543 11.966Z" fill="white"/>
<path d="M70.679 13.5523C70.6103 13.5599 70.5412 13.5634 70.472 13.5628C70.3236 13.567 70.1759 13.5401 70.0385 13.4836C69.9192 13.4301 69.8169 13.3448 69.7428 13.2371C69.6572 13.1094 69.6 12.9647 69.5752 12.8129C69.5395 12.6113 69.523 12.4067 69.5259 12.202V0.115845L67.5145 0.411645V13.0895C67.5061 13.4218 67.5597 13.7529 67.6725 14.0656C67.7669 14.3198 67.9226 14.5467 68.126 14.7261C68.3282 14.8998 68.5678 15.0245 68.826 15.0908C69.1124 15.1652 69.4074 15.2017 69.7034 15.1993C69.8611 15.1993 70.012 15.1927 70.1569 15.1799C70.3018 15.167 70.4428 15.147 70.5808 15.1204C70.7188 15.0938 70.8335 15.0678 70.9255 15.0419L71.1227 13.4839L70.8858 13.5233C70.8075 13.5365 70.7385 13.546 70.679 13.5523Z" fill="white"/>
<path d="M81.711 4.94613H79.2463L75.8724 8.65291H75.1453V0.115845L73.1345 0.411645V15.0021H75.1453V10.1715H75.1781L79.2066 15.0021H81.8092L77.0266 9.61283L81.711 4.94613Z" fill="white"/>
<path d="M90.5241 6.21788C90.1456 5.7273 89.6462 5.34347 89.0748 5.10391C88.44 4.84475 87.7592 4.71725 87.0736 4.72925C86.383 4.71755 85.6976 4.85192 85.0625 5.12357C84.4848 5.37649 83.9699 5.75349 83.5542 6.22775C83.1258 6.7259 82.8036 7.30623 82.6074 7.93323C82.3827 8.65084 82.2731 9.39948 82.2824 10.1514C82.2545 11.1014 82.4538 12.0444 82.8637 12.9019C83.2385 13.645 83.8438 14.2467 84.589 14.6173C85.4635 15.0291 86.4229 15.2284 87.3891 15.1989C87.8539 15.2028 88.3183 15.1731 88.7788 15.1102C89.1639 15.0548 89.5433 14.9657 89.9128 14.844C90.2791 14.721 90.6351 14.5693 90.9775 14.3905L91.1155 12.8723C90.8656 12.9643 90.6125 13.0564 90.3562 13.1484C90.0998 13.2404 89.8337 13.3225 89.5579 13.3948C89.2795 13.4677 88.9962 13.5203 88.7101 13.5522C88.4221 13.5854 88.1324 13.602 87.8425 13.6018C87.3248 13.6102 86.8081 13.5539 86.3043 13.4342C85.8981 13.3369 85.5222 13.1404 85.2103 12.8624C84.8954 12.5623 84.6644 12.1851 84.54 11.7681C84.4112 11.3459 84.3389 10.9084 84.3251 10.4672H91.4504C91.5475 9.6515 91.511 8.8255 91.342 8.02164C91.2033 7.36822 90.9242 6.75274 90.5241 6.21788ZM85.5554 6.69138C86.0179 6.41017 86.5523 6.26963 87.0933 6.28687C87.6348 6.2598 88.1698 6.41613 88.6115 6.73054C89.0041 7.04393 89.2842 7.47641 89.4097 7.96284C89.5084 8.32249 89.5568 8.69401 89.5536 9.06693H84.3684C84.405 8.67378 84.4889 8.28648 84.6185 7.9135C84.787 7.41371 85.1165 6.98391 85.5554 6.69138Z" fill="white"/>
<path d="M107.539 5.14333C107.002 4.85134 106.396 4.70838 105.785 4.72927C105.254 4.72771 104.727 4.81778 104.227 4.99547C103.719 5.17737 103.241 5.43317 102.808 5.75458C102.562 5.93659 102.328 6.1341 102.108 6.34602C101.906 5.85238 101.549 5.43743 101.092 5.16306C100.548 4.86959 99.9353 4.72665 99.3175 4.74901C98.7902 4.74921 98.2667 4.83924 97.7696 5.0152C97.2594 5.19474 96.7779 5.44702 96.3399 5.76437C96.1983 5.86657 96.0612 5.97731 95.9258 6.09299V4.74997L93.9147 5.04577V15.0027H95.9258V7.50347C96.1628 7.34827 96.4098 7.20894 96.6652 7.08645C96.978 6.9387 97.305 6.82308 97.6412 6.74139C97.951 6.66499 98.2687 6.62525 98.5879 6.62305C98.8807 6.61421 99.1724 6.66467 99.4453 6.77131C99.6713 6.86686 99.871 7.0155 100.027 7.20471C100.198 7.42459 100.316 7.68099 100.372 7.95395C100.449 8.30688 100.485 8.66739 100.481 9.02853V15.0027H102.492V8.61415C102.493 8.23699 102.468 7.86025 102.416 7.48671C102.644 7.33693 102.88 7.19989 103.123 7.07626C103.43 6.92158 103.754 6.80248 104.089 6.72133C104.405 6.64397 104.729 6.60423 105.055 6.603C105.345 6.59585 105.633 6.64617 105.903 6.75094C106.133 6.8446 106.336 6.99367 106.494 7.18497C106.666 7.40449 106.784 7.6609 106.839 7.9339C106.916 8.28668 106.953 8.6471 106.948 9.00815V15.0024H108.959V8.59441C108.984 7.84865 108.864 7.10517 108.604 6.40555C108.4 5.87799 108.025 5.43375 107.539 5.14333Z" fill="white"/>
<path d="M118.581 12.5477C118.432 12.638 118.285 12.7222 118.137 12.7935C117.903 12.9081 117.662 13.0102 117.417 13.0994C117.183 13.184 116.942 13.25 116.697 13.2966C116.447 13.3434 116.193 13.3665 115.939 13.3656C115.522 13.3815 115.107 13.29 114.736 13.0997C114.417 12.9183 114.17 12.6328 114.036 12.291C113.873 11.8668 113.796 11.4146 113.809 10.9604V4.74965L111.798 5.04537V11.315C111.774 12.0633 111.904 12.8084 112.182 13.5036C112.411 14.052 112.822 14.5047 113.346 14.7852C113.93 15.0763 114.577 15.2187 115.229 15.1996C115.641 15.2024 116.052 15.1527 116.451 15.0517C116.832 14.9531 117.2 14.8074 117.546 14.6179C117.901 14.4226 118.237 14.1948 118.551 13.9374C118.609 13.8904 118.666 13.8352 118.723 13.7856L119.014 15.0014H120.572L120.591 4.74869L118.581 5.04441V12.5477Z" fill="white"/>
<path d="M129.898 10.4672C129.696 10.2529 129.463 10.0701 129.208 9.9247C128.943 9.77315 128.666 9.64454 128.379 9.54025C128.169 9.47453 127.962 9.40548 127.758 9.33318C127.555 9.26089 127.351 9.19513 127.147 9.13598C126.943 9.07683 126.746 9.01445 126.555 8.94873C126.377 8.88796 126.202 8.81546 126.033 8.73179C125.871 8.6457 125.716 8.54683 125.569 8.43607C125.434 8.33426 125.321 8.20703 125.235 8.06149C125.147 7.91201 125.103 7.74153 125.106 7.56856C125.101 7.37847 125.149 7.19064 125.244 7.0263C125.347 6.86489 125.49 6.73255 125.658 6.64185C125.865 6.5287 126.088 6.44876 126.319 6.40494C126.608 6.34973 126.902 6.32342 127.196 6.3264C127.341 6.3264 127.499 6.33323 127.67 6.34605C127.84 6.35887 128.027 6.38259 128.231 6.41545C128.436 6.44831 128.639 6.49101 128.842 6.54293C129.046 6.59485 129.253 6.65499 129.464 6.72072C129.659 6.78071 129.85 6.85323 130.035 6.93789L130.174 5.34055C129.924 5.23562 129.677 5.14347 129.434 5.06417C129.191 4.98565 128.945 4.91981 128.695 4.86697C128.451 4.81543 128.204 4.77926 127.955 4.75858C127.712 4.73886 127.472 4.72898 127.236 4.72898C126.691 4.72339 126.148 4.78634 125.619 4.91631C125.167 5.02643 124.737 5.21313 124.347 5.46836C123.994 5.70181 123.706 6.02057 123.509 6.39507C123.303 6.80779 123.202 7.26482 123.214 7.72597C123.207 8.05811 123.261 8.38865 123.371 8.70195C123.465 8.9649 123.605 9.20872 123.785 9.42159C123.961 9.62284 124.163 9.79873 124.387 9.94412C124.619 10.097 124.867 10.2258 125.126 10.3286C125.27 10.3814 125.421 10.4338 125.58 10.486C125.738 10.5381 125.892 10.5876 126.043 10.6345C126.194 10.6805 126.342 10.7264 126.487 10.7722C126.631 10.8185 126.772 10.8642 126.91 10.9102C127.048 10.9562 127.183 10.9989 127.315 11.0383C127.491 11.1008 127.662 11.1766 127.827 11.2651C127.972 11.3416 128.108 11.4342 128.231 11.5411C128.341 11.6365 128.428 11.7541 128.487 11.8862C128.548 12.0226 128.578 12.1704 128.577 12.3196C128.583 12.4655 128.558 12.6112 128.502 12.746C128.445 12.8808 128.36 13.0014 128.251 13.0991C128.007 13.3028 127.715 13.4418 127.403 13.503C127.038 13.5837 126.664 13.6234 126.289 13.6213C126.055 13.6198 125.822 13.6033 125.589 13.5719C125.333 13.5391 125.064 13.4931 124.781 13.434C124.498 13.3748 124.209 13.3025 123.913 13.2171C123.618 13.1317 123.319 13.0364 123.016 12.9315L123.095 14.6074C123.437 14.7258 123.749 14.821 124.032 14.8933C124.315 14.9656 124.584 15.0281 124.84 15.0806C125.087 15.1318 125.338 15.1648 125.589 15.1792C125.832 15.1922 126.079 15.1986 126.329 15.1986C126.879 15.2015 127.427 15.1451 127.965 15.0307C128.439 14.9346 128.892 14.7581 129.306 14.5085C129.679 14.2808 129.988 13.9618 130.203 13.5818C130.429 13.1648 130.541 12.6957 130.528 12.2217C130.536 11.8758 130.48 11.5313 130.361 11.2063C130.255 10.9326 130.098 10.6817 129.898 10.4672Z" fill="white"/>
<path d="M134.638 0.618313C134.434 0.493227 134.198 0.428287 133.958 0.430981C133.715 0.429145 133.477 0.493953 133.268 0.618313C133.063 0.738886 132.89 0.908175 132.766 1.11123C132.641 1.31585 132.576 1.55164 132.578 1.79149C132.576 2.03435 132.641 2.27305 132.766 2.48153C132.886 2.68784 133.06 2.85807 133.268 2.97445C133.479 3.09267 133.717 3.15385 133.958 3.15191C134.197 3.15468 134.431 3.09338 134.638 2.97445C134.841 2.85721 135.008 2.68678 135.122 2.48153C135.24 2.27089 135.301 2.03305 135.299 1.79149C135.302 1.55296 135.24 1.31805 135.122 1.11123C135.004 0.909088 134.838 0.73961 134.638 0.618313Z" fill="white"/>
<path d="M132.914 15.0017H134.925V4.74901L132.914 5.04473V15.0017Z" fill="white"/>
<path d="M146.578 4.94613H144.113L140.74 8.65291H140.012V0.115845L138.001 0.411645V15.0021H140.012V10.1715H140.045L144.074 15.0021H146.676L141.894 9.61283L146.578 4.94613Z" fill="white"/>
<path d="M154.425 15.0017H157.028L152.245 9.61251L156.929 4.94613H154.465L151.091 8.65291H150.364V0.115845L148.352 0.411645V15.0021H150.364V10.1715H150.397L154.425 15.0017Z" fill="white"/>
</svg>

<svg xmlns="http://www.w3.org/2000/svg" viewBox="0 0 158 16"><path fill="#fff" d="M0 15V1.001h4.593V15H0ZM10.843 3.23 13.485 15H8.457L5.303 1.001h2.82a2.655 2.655 0 0 1 1.764.641c.491.404.829.964.956 1.587ZM14.175 15V1.001h4.593V15h-4.594Zm8.062-8.675a2.779 2.779 0 0 1-2.425-1.39 2.735 2.735 0 0 1-.374-1.41 2.685 2.685 0 0 1 .375-1.4 2.813 2.813 0 0 1 3.824-1.005c.415.244.761.59 1.005 1.005.251.424.38.908.375 1.4.005.495-.125.982-.375 1.41a2.8 2.8 0 0 1-1.005 1.015c-.424.25-.908.38-1.4.375ZM25.727 15V1.001h4.594V15h-4.594Zm10.41-6.349c.012.014.11.175.295.483.184.309.424.703.72 1.183a373.133 373.133 0 0 1 1.862 3.056c.289.48.617 1.023.986 1.627h-5.047c-.315-.513-.601-.976-.858-1.39-.256-.414-.528-.861-.817-1.34-.29-.48-.576-.947-.858-1.4a71.28 71.28 0 0 1-.73-1.193 20.74 20.74 0 0 0-.424-.69A2.041 2.041 0 0 1 30.932 8c.02-.338.128-.665.315-.947.079-.132.223-.365.433-.7a212.59 212.59 0 0 0 1.598-2.603l.817-1.35.858-1.4H40l-3.904 6.368c-.12.19-.189.407-.197.632.013.235.095.461.236.65h.001ZM45.333 15.002h2.07V9.225h5.285l.217-1.715h-5.501V2.738h7.157V1.003h-9.228v13.999ZM62.773 5.36a5.41 5.41 0 0 0-2.672-.63 5.386 5.386 0 0 0-2.691.65 4.547 4.547 0 0 0-1.794 1.834 5.796 5.796 0 0 0-.641 2.8 6.047 6.047 0 0 0 .601 2.79c.378.758.98 1.381 1.725 1.784.802.42 1.698.63 2.603.612a5.56 5.56 0 0 0 2.721-.65 4.597 4.597 0 0 0 1.844-1.854 5.807 5.807 0 0 0 .66-2.84 5.71 5.71 0 0 0-.611-2.711 4.31 4.31 0 0 0-1.745-1.784Zm-.119 6.606a2.681 2.681 0 0 1-1.074 1.232 3.058 3.058 0 0 1-1.577.405 2.804 2.804 0 0 1-1.538-.414 2.78 2.78 0 0 1-1.026-1.242 4.978 4.978 0 0 1-.374-2.05 4.65 4.65 0 0 1 .374-1.992c.221-.494.59-.907 1.055-1.183a3.192 3.192 0 0 1 1.627-.395c.443-.01.883.073 1.291.247.358.161.67.408.907.72.255.338.439.723.542 1.133.124.48.183.974.178 1.47a4.904 4.904 0 0 1-.385 2.069ZM70.679 13.552a1.745 1.745 0 0 1-.207.01 1.06 1.06 0 0 1-.433-.078.713.713 0 0 1-.296-.247 1.073 1.073 0 0 1-.168-.424 3.24 3.24 0 0 1-.05-.611V.116l-2.01.296v12.677c-.009.333.045.664.157.977.095.254.25.48.454.66.202.174.442.298.7.365.286.074.581.11.877.108.158 0 .309-.006.454-.02a4.333 4.333 0 0 0 .769-.138l.197-1.557-.237.04a3.426 3.426 0 0 1-.207.028ZM81.711 4.946h-2.465l-3.374 3.707h-.727V.116l-2.01.296v14.59h2.01v-4.83h.033l4.029 4.83h2.602l-4.782-5.39 4.684-4.666ZM90.524 6.218a3.578 3.578 0 0 0-1.45-1.114 5.06 5.06 0 0 0-2-.375 4.903 4.903 0 0 0-2.011.395 4.298 4.298 0 0 0-1.509 1.104 4.826 4.826 0 0 0-.947 1.705 7.128 7.128 0 0 0-.325 2.218c-.028.95.172 1.893.582 2.75.374.744.98 1.346 1.725 1.716a6.133 6.133 0 0 0 2.8.582c.465.004.93-.026 1.39-.089a6.653 6.653 0 0 0 1.134-.266 7.366 7.366 0 0 0 1.065-.454l.138-1.518c-.25.092-.504.184-.76.276a9.482 9.482 0 0 1-.798.247 5.949 5.949 0 0 1-.848.157 7.53 7.53 0 0 1-.867.05 6.218 6.218 0 0 1-1.539-.168 2.53 2.53 0 0 1-1.094-.572 2.498 2.498 0 0 1-.67-1.094 4.994 4.994 0 0 1-.215-1.3h7.125a7.55 7.55 0 0 0-.108-2.446 4.61 4.61 0 0 0-.818-1.804Zm-4.969.473a2.79 2.79 0 0 1 1.538-.404 2.41 2.41 0 0 1 1.519.444c.392.313.672.745.798 1.232.098.36.147.731.144 1.104h-5.186c.037-.393.12-.78.25-1.154.169-.5.499-.93.937-1.222ZM107.539 5.143a3.428 3.428 0 0 0-1.754-.414 4.612 4.612 0 0 0-1.558.266 5.48 5.48 0 0 0-1.419.76c-.246.182-.48.38-.7.591a2.473 2.473 0 0 0-1.016-1.183 3.473 3.473 0 0 0-1.775-.414c-.527 0-1.05.09-1.547.266a5.611 5.611 0 0 0-1.844 1.078V4.75l-2.011.296v9.957h2.01v-7.5c.238-.155.485-.294.74-.417a5.11 5.11 0 0 1 .976-.345 4.07 4.07 0 0 1 .947-.118c.293-.009.584.042.857.148.226.096.426.245.582.434.171.22.289.476.345.749.077.353.113.713.109 1.075v5.974h2.011V8.614a8.022 8.022 0 0 0-.076-1.127c.228-.15.464-.287.707-.41.307-.155.631-.275.966-.356.316-.077.64-.117.966-.118.29-.007.578.043.848.148a1.5 1.5 0 0 1 .591.434c.172.22.29.476.345.749.077.353.114.713.109 1.074v5.994h2.011V8.594a5.731 5.731 0 0 0-.355-2.188 2.537 2.537 0 0 0-1.065-1.263ZM118.581 12.548c-.149.09-.296.174-.444.245a7.375 7.375 0 0 1-.72.306c-.234.085-.475.151-.72.198-.25.046-.504.07-.758.069a2.435 2.435 0 0 1-1.203-.266 1.603 1.603 0 0 1-.7-.809 3.435 3.435 0 0 1-.227-1.33V4.75l-2.011.295v6.27a5.425 5.425 0 0 0 .384 2.189c.229.548.64 1 1.164 1.281a3.962 3.962 0 0 0 1.883.415c.412.002.823-.047 1.222-.148a4.766 4.766 0 0 0 1.095-.434 6.613 6.613 0 0 0 1.005-.68c.058-.048.115-.103.172-.152l.291 1.215h1.558l.019-10.252-2.01.295v7.504ZM129.898 10.467a2.97 2.97 0 0 0-.69-.542 5.35 5.35 0 0 0-.829-.385c-.21-.065-.417-.135-.621-.207a10.727 10.727 0 0 0-.611-.197c-.204-.06-.401-.122-.592-.187a4.334 4.334 0 0 1-.522-.217 3.501 3.501 0 0 1-.464-.296 1.29 1.29 0 0 1-.334-.375.938.938 0 0 1-.129-.492 1.03 1.03 0 0 1 .138-.543c.103-.161.246-.293.414-.384.207-.113.43-.193.661-.237.289-.055.583-.082.877-.079a6.385 6.385 0 0 1 1.035.09c.205.032.408.075.611.127.204.052.411.112.622.178.195.06.386.132.571.217l.139-1.597a9.649 9.649 0 0 0-.74-.277 7.331 7.331 0 0 0-.739-.197 5.97 5.97 0 0 0-.74-.108 8.894 8.894 0 0 0-.719-.03 6.496 6.496 0 0 0-1.617.187c-.452.11-.882.297-1.272.552a2.514 2.514 0 0 0-.838.927c-.206.413-.307.87-.295 1.331a2.77 2.77 0 0 0 .157.976c.094.263.234.507.414.72.176.2.378.377.602.522.232.153.48.282.739.385.144.052.295.105.454.157.158.052.312.102.463.148a45.406 45.406 0 0 1 .867.276c.138.046.273.089.405.128.176.063.347.139.512.227.145.077.281.17.404.276.11.095.197.213.256.345.061.137.091.284.09.434a.991.991 0 0 1-.326.78 1.892 1.892 0 0 1-.848.403c-.365.08-.739.12-1.114.118a5.496 5.496 0 0 1-.7-.05 10.47 10.47 0 0 1-.808-.137c-.283-.06-.572-.131-.868-.217-.295-.085-.594-.18-.897-.286l.079 1.676c.342.119.654.214.937.286.283.073.552.135.808.188.247.05.498.084.749.098.243.013.49.02.74.02a7.668 7.668 0 0 0 1.636-.168 4.22 4.22 0 0 0 1.341-.523c.373-.227.682-.546.897-.926.226-.417.338-.886.325-1.36a2.767 2.767 0 0 0-.167-1.016 2.303 2.303 0 0 0-.463-.739ZM134.638.618a1.274 1.274 0 0 0-.68-.187 1.328 1.328 0 0 0-.69.187c-.205.12-.378.29-.502.493-.125.205-.19.44-.188.68a1.32 1.32 0 0 0 .188.69c.12.207.294.377.502.493.211.119.449.18.69.178.239.003.473-.059.68-.178.203-.117.37-.287.484-.492.118-.211.179-.449.177-.69a1.34 1.34 0 0 0-.177-.68 1.403 1.403 0 0 0-.484-.494ZM132.914 15.002h2.011V4.749l-2.011.296v9.957ZM146.578 4.946h-2.465l-3.373 3.707h-.728V.116l-2.011.296v14.59h2.011v-4.83h.033l4.029 4.83h2.602l-4.782-5.39 4.684-4.666ZM154.425 15.002h2.603l-4.783-5.39 4.684-4.666h-2.464l-3.374 3.707h-.727V.116l-2.012.296v14.59h2.012v-4.83h.033l4.028 4.83Z"/></svg>
